packages/clerk-js/src/v4/icons/signout-double.svg

<svg viewBox="0 0 16 16" fill="none" xmlns="http://www.w3.org/2000/svg">
<path d="M4 0C3.44772 0 3 0.447716 3 1V13C3 13.5523 3.44772 14 4 14C4.55228 14 5 13.5523 5 13V1C5 0.447715 4.55228 0 4 0Z" fill="currentColor"/>
<path d="M11.2929 9.29289C10.9024 9.68342 10.9024 10.3166 11.2929 10.7071C11.6834 11.0976 12.3166 11.0976 12.7071 10.7071L15.7071 7.70711C15.8946 7.51957 16 7.26522 16 7C16 6.73478 15.8946 6.48043 15.7071 6.29289L12.7071 3.29289C12.3166 2.90237 11.6834 2.90237 11.2929 3.29289C10.9024 3.68342 10.9024 4.31658 11.2929 4.70711L12.5858 6L8 6C7.44771 6 7 6.44772 7 7C7 7.55229 7.44772 8 8 8H12.5858L11.2929 9.29289Z" fill="currentColor"/>
<path d="M1 1C0.447715 1 0 1.44772 0 2V12C0 12.5523 0.447715 13 1 13C1.55228 13 2 12.5523 2 12V2C2 1.44772 1.55228 1 1 1Z" fill="currentColor"/>
</svg>

<svg viewBox="0 0 16 16" fill="none" xmlns="http://www.w3.org/2000/svg"><path d="M4 0a1 1 0 0 0-1 1v12a1 1 0 1 0 2 0V1a1 1 0 0 0-1-1ZM11.293 9.293a1 1 0 0 0 1.414 1.414l3-3a1 1 0 0 0 0-1.414l-3-3a1 1 0 1 0-1.414 1.414L12.586 6H8a1 1 0 1 0 0 2h4.586l-1.293 1.293ZM1 1a1 1 0 0 0-1 1v10a1 1 0 1 0 2 0V2a1 1 0 0 0-1-1Z" fill="currentColor"/></svg>
